flaticon/interaction/file-16.svg

<svg xmlns="http://www.w3.org/2000/svg" width="32" height="32" viewBox="0 0 24 24">
    <path d="M14.601562 8.800781L4.601562 8.800781C4.378906 8.800781 4.199219 8.980469 4.199219 9.199219 4.199219 9.421875 4.378906 9.601562 4.601562 9.601562L14.601562 9.601562C14.820312 9.601562 15 9.421875 15 9.199219 15 8.980469 14.820312 8.800781 14.601562 8.800781zM4.601562 6.398438L8.601562 6.398438C8.820312 6.398438 9 6.222656 9 6 9 5.777344 8.820312 5.601562 8.601562 5.601562L4.601562 5.601562C4.378906 5.601562 4.199219 5.777344 4.199219 6 4.199219 6.222656 4.378906 6.398438 4.601562 6.398438zM15 12.398438C15 12.179688 14.820312 12 14.601562 12L4.601562 12C4.378906 12 4.199219 12.179688 4.199219 12.398438 4.199219 12.621094 4.378906 12.800781 4.601562 12.800781L14.601562 12.800781C14.820312 12.800781 15 12.621094 15 12.398438zM11.800781 15.601562C11.800781 15.378906 11.621094 15.199219 11.398438 15.199219L4.601562 15.199219C4.378906 15.199219 4.199219 15.378906 4.199219 15.601562 4.199219 15.820312 4.378906 16 4.601562 16L11.398438 16C11.621094 16 11.800781 15.820312 11.800781 15.601562zM4.601562 18.398438C4.378906 18.398438 4.199219 18.578125 4.199219 18.800781 4.199219 19.019531 4.378906 19.199219 4.601562 19.199219L10.199219 19.199219C10.421875 19.199219 10.601562 19.019531 10.601562 18.800781 10.601562 18.578125 10.421875 18.398438 10.199219 18.398438zM4.601562 18.398438"/>
    <path d="M 1 0.800781 L 12.601562 0.800781 L 12.601562 6.398438 L 18.199219 6.398438 L 18.199219 13.199219 L 19 13.199219 L 19 5.835938 L 13.164062 0 L 0.199219 0 L 0.199219 24 L 13.398438 24 L 13.398438 23.199219 L 1 23.199219 Z M 13.398438 1.367188 L 17.632812 5.601562 L 13.398438 5.601562 Z M 13.398438 1.367188"/>
    <path d="M 23.78125 18.039062 C 23.734375 17.894531 23.609375 17.785156 23.457031 17.765625 L 20.34375 17.328125 L 18.957031 14.617188 C 18.820312 14.351562 18.378906 14.351562 18.246094 14.617188 L 16.855469 17.328125 L 13.746094 17.765625 C 13.59375 17.785156 13.464844 17.894531 13.417969 18.039062 C 13.371094 18.1875 13.414062 18.347656 13.527344 18.453125 L 15.769531 20.558594 L 15.238281 23.53125 C 15.214844 23.679688 15.273438 23.832031 15.394531 23.921875 C 15.515625 24.011719 15.679688 24.023438 15.816406 23.957031 L 18.601562 22.546875 L 21.386719 23.957031 C 21.441406 23.984375 21.503906 24 21.566406 24 C 21.652344 24 21.734375 23.972656 21.804688 23.921875 C 21.925781 23.832031 21.988281 23.679688 21.960938 23.53125 L 21.433594 20.558594 L 23.675781 18.453125 C 23.785156 18.347656 23.828125 18.1875 23.78125 18.039062 Z M 20.726562 20.125 C 20.628906 20.21875 20.582031 20.355469 20.605469 20.488281 L 21.03125 22.878906 L 18.78125 21.738281 C 18.722656 21.710938 18.660156 21.695312 18.597656 21.695312 C 18.539062 21.695312 18.476562 21.710938 18.417969 21.738281 L 16.167969 22.878906 L 16.59375 20.488281 C 16.617188 20.351562 16.570312 20.21875 16.472656 20.125 L 14.679688 18.441406 L 17.171875 18.09375 C 17.300781 18.074219 17.414062 17.996094 17.472656 17.878906 L 18.597656 15.675781 L 19.726562 17.878906 C 19.785156 17.996094 19.898438 18.074219 20.027344 18.09375 L 22.515625 18.441406 Z M 20.726562 20.125"/>
</svg>

<svg xmlns="http://www.w3.org/2000/svg" width="32" height="32" viewBox="0 0 24 24">
    <path d="M14.602 8.8h-10a.401.401 0 1 0 0 .802h10a.401.401 0 0 0 0-.801zm0 0M4.602 6.398h4a.398.398 0 1 0 0-.796h-4a.398.398 0 1 0 0 .796zm0 0M15 12.398a.4.4 0 0 0-.398-.398h-10a.401.401 0 1 0 0 .8h10c.218 0 .398-.179.398-.402zm0 0M11.8 15.602a.402.402 0 0 0-.402-.403H4.602a.401.401 0 0 0 0 .8l6.796.001c.223 0 .403-.18.403-.398zm0 0M4.602 18.398a.401.401 0 0 0 0 .8l5.597.001a.401.401 0 1 0 0-.8zm0 0"/>
    <path d="M1 .8h11.602v5.598h5.597V13.2H19V5.836L13.164 0H.2v24h13.2v-.8H1zm12.398.567l4.235 4.235h-4.235zm0 0"/>
    <path d="M23.781 18.04a.397.397 0 0 0-.324-.274l-3.113-.438-1.387-2.71c-.137-.266-.578-.266-.71 0l-1.392 2.71-3.109.438a.4.4 0 0 0-.219.688l2.243 2.105-.532 2.972c-.023.149.035.301.157.39a.41.41 0 0 0 .421.036l2.786-1.41 2.785 1.41a.406.406 0 0 0 .418-.035.4.4 0 0 0 .156-.39l-.527-2.973 2.242-2.106a.406.406 0 0 0 .105-.414zm-3.054 2.085a.408.408 0 0 0-.122.363l.426 2.39-2.25-1.14a.436.436 0 0 0-.183-.043.433.433 0 0 0-.18.043l-2.25 1.14.426-2.39a.405.405 0 0 0-.121-.363l-1.793-1.684 2.492-.347a.401.401 0 0 0 .3-.215l1.126-2.203 1.129 2.203a.401.401 0 0 0 .3.215l2.489.347zm0 0"/>
</svg>
